svg/Gray/ellipse.svg

<svg viewBox="0 0 48 48" xmlns="http://www.w3.org/2000/svg"><g fill="none"><rect height="44" rx="2.73524" width="44" x="2" y="2"/><g stroke="#0066b3"><circle cx="24" cy="-23.885576" r="3" stroke-width=".75" transform="scale(1 -1)"/><circle cx="37.177044" cy="-13.936373" r="3" stroke-width=".75" transform="scale(1 -1)"/><circle cx="32.553257" cy="-42.325119" r="3" stroke-width=".75" transform="scale(1 -1)"/><circle cx="16.33456" cy="-37.304596" r="3" stroke-width=".75" transform="scale(1 -1)"/><circle cx="41.907383" cy="-36.481815" r="3" stroke-width=".75" transform="scale(1 -1)"/><path d="m13.655484 36.094287c-1.2525-.944529-2.505157-1.889176-3.634109-2.912006-1.1289522-1.02283-2.133959-2.123633-2.8918199-3.104576-.757861-.980944-1.2683998-1.841717-1.8287097-3.013012-.5603099-1.171294-1.1703275-2.652831-1.551895-4.311246s-.5347974-3.493198-.4253015-4.986111c.1094959-1.492914.4812427-2.643587.9596756-3.739041.478433-1.095455 1.0632404-2.135636 1.810146-2.977091s1.6553911-1.4845193 2.7984986-2.1741228c1.1431079-.6896035 2.5207069-1.4258711 4.2393979-1.906671 1.71869-.4807999 3.778458-.7066258 5.692317-.6803447 1.913859.026281 3.681971.3044129 5.136605.6146646 1.454633.3102517 2.595887.6525408 3.622916 1.020393 1.027029.3678521 1.939935.7612301 3.156742 1.4329104 1.216807.6716805 2.738385 1.6221165 4.258005 2.5713305m4.438582 3.742131c1.150872 1.51663 2.301678 3.033175 3.199984 4.915307.898306 1.882133 1.544131 4.130205 1.863844 5.84883.319712 1.718625.313079 2.907971.127606 4.12944-.185473 1.221468-.550113 2.475173-.915105 3.730091" fill="none" stroke-linejoin="round" stroke-width="2"/></g></g></svg>

<?xml version="1.0" encoding="UTF-8" standalone="no"?>
<svg
   viewBox="0 0 48 48"
   version="1.1"
   id="svg16"
   sodipodi:docname="ellipse.svg"
   inkscape:version="1.1.2 (0a00cf5339, 2022-02-04, custom)"
   xmlns:inkscape="http://www.inkscape.org/namespaces/inkscape"
   xmlns:sodipodi="http://sodipodi.sourceforge.net/DTD/sodipodi-0.dtd"
   xmlns="http://www.w3.org/2000/svg"
   xmlns:svg="http://www.w3.org/2000/svg">
  <defs
     id="defs20">
    <inkscape:path-effect
       effect="bspline"
       id="path-effect3841"
       is_visible="true"
       lpeversion="1"
       weight="33.333333"
       steps="2"
       helper_size="0"
       apply_no_weight="true"
       apply_with_weight="true"
       only_selected="false" />
  </defs>
  <sodipodi:namedview
     id="namedview18"
     pagecolor="#ffffff"
     bordercolor="#666666"
     borderopacity="1.0"
     inkscape:pageshadow="2"
     inkscape:pageopacity="0.0"
     inkscape:pagecheckerboard="0"
     showgrid="false"
     inkscape:zoom="7.1145833"
     inkscape:cx="0.56222548"
     inkscape:cy="27.057101"
     inkscape:window-width="1920"
     inkscape:window-height="1021"
     inkscape:window-x="1366"
     inkscape:window-y="35"
     inkscape:window-maximized="1"
     inkscape:current-layer="g14" />
  <g
     fill="none"
     id="g14">
    <rect
       height="44"
       rx="2.73524"
       width="44"
       x="2"
       y="2"
       id="rect2" />
    <circle
       cx="24"
       cy="-23.885576"
       r="3"
       stroke-width="0.75"
       id="circle4"
       style="stroke:#0066b3"
       transform="scale(1,-1)" />
    <circle
       cx="37.177044"
       cy="-13.936373"
       r="3"
       stroke-width="0.75"
       id="circle4-2"
       style="stroke:#0066b3"
       transform="scale(1,-1)" />
    <circle
       cx="32.553257"
       cy="-42.325119"
       r="3"
       stroke-width="0.75"
       id="circle4-7"
       style="stroke:#0066b3"
       transform="scale(1,-1)" />
    <circle
       cx="16.33456"
       cy="-37.304596"
       r="3"
       stroke-width="0.75"
       id="circle6"
       style="stroke:#0066b3"
       transform="scale(1,-1)" />
    <circle
       cx="41.907383"
       cy="-36.481815"
       r="3"
       stroke-width="0.75"
       id="circle6-6"
       style="stroke:#0066b3"
       transform="scale(1,-1)" />
    <path
       style="fill:none;stroke:#0066b3;stroke-width:2;stroke-linecap:butt;stroke-linejoin:round;stroke-miterlimit:4;stroke-dasharray:none;stroke-opacity:1"
       d="M 13.655484,36.094287 C 12.402984,35.149758 11.150327,34.205111 10.021375,33.182281 8.8924228,32.159451 7.887416,31.058648 7.1295551,30.077705 6.3716941,29.096761 5.8611553,28.235988 5.3008454,27.064693 4.7405355,25.893399 4.1305179,24.411862 3.7489504,22.753447 3.3673829,21.095032 3.214153,19.260249 3.3236489,17.767336 3.4331448,16.274422 3.8048916,15.123749 4.2833245,14.028295 4.7617575,12.93284 5.3465649,11.892659 6.0934705,11.051204 6.8403761,10.209749 7.7488616,9.5666847 8.8919691,8.8770812 10.035077,8.1874777 11.412676,7.4512101 13.131367,6.9704102 c 1.71869,-0.4807999 3.778458,-0.7066258 5.692317,-0.6803447 1.913859,0.026281 3.681971,0.3044129 5.136605,0.6146646 1.454633,0.3102517 2.595887,0.6525408 3.622916,1.020393 1.027029,0.3678521 1.939935,0.7612301 3.156742,1.4329104 1.216807,0.6716805 2.738385,1.6221165 4.258005,2.5713305 m 4.438582,3.742131 c 1.150872,1.51663 2.301678,3.033175 3.199984,4.915307 0.898306,1.882133 1.544131,4.130205 1.863844,5.84883 0.319712,1.718625 0.313079,2.907971 0.127606,4.12944 -0.185473,1.221468 -0.550113,2.475173 -0.915105,3.730091"
       id="path3839"
       inkscape:path-effect="#path-effect3841"
       inkscape:original-d="M 13.655484,36.094287 C 12.403827,35.14864 11.15117,34.203993 9.897514,33.260347 8.893466,32.158499 7.888459,31.057696 6.882432,29.95787 6.372873,29.096062 5.862334,28.235289 5.350785,27.375499 4.741742,25.892902 4.131725,24.411365 3.520695,22.930798 3.368459,21.094942 3.215229,19.260159 3.060996,17.42634 3.433757,16.27462 3.805504,15.123947 4.176259,13.97425 4.76209,12.933027 5.346897,11.892846 5.930717,10.853644 c 0.909521,-0.64409 1.818007,-1.2871537 2.72551,-1.9292307 1.378656,-0.737298 2.756256,-1.473565 4.132884,-2.208848 2.06085,-0.226834 4.120618,-0.45266 6.179427,-0.677491 1.769183,0.277143 3.537295,0.555275 5.304442,0.834412 1.1423,0.341303 2.283554,0.683592 3.423831,1.026888 0.913943,0.392394 1.826849,0.785772 2.738773,1.180158 1.521001,0.9504517 3.042579,1.9008877 4.562368,2.8498317 m 4.438582,3.742131 c 0,0 2.301831,3.033059 3.452615,4.549891 0.646864,2.247207 1.292689,4.495279 1.937553,6.744485 -0.0056,1.188392 -0.01226,2.377738 -0.0199,3.568107 -0.363652,1.252753 -0.728292,2.506457 -1.093939,3.761185"
       sodipodi:nodetypes="cccccccccccccccccccc" />
  </g>
</svg>
